public/images/icons/wiki/straal/fornax.svg

<svg fill="none" height="480" stroke-width="10" width="480" xmlns="http://www.w3.org/2000/svg"><g fill="none" stroke="#eee" stroke-linecap="round" stroke-linejoin="round"><path d="m240 240v-120l-120 120 120 120 120-120-120-120zm0 0 60 60m-60-60-60 60" stroke-width="15"/><path d="m240 30a-210 210 0 0 0 -210 210 210 210 0 0 0 210 210 210-210 0 0 0 210-210-210-210 0 0 0 -210-210" stroke-width="40"/></g></svg>

<svg xmlns="http://www.w3.org/2000/svg" baseProfile="full" version="1.1" width="480px" height="480px" style="fill: none; width: 480px; height: 480px; stroke-width: 10;"><path d="" style="stroke-width: 10; stroke-linecap: round; stroke-linejoin: round; stroke: rgb(33, 33, 33); fill: rgb(33, 33, 33);"></path><path d="M240,240 L240,240 L240,120 L120,240 L240,360 L360,240 L240,120 Z M240,240 L240,240 L300,300 M240,240 L240,240 L180,300 " style="stroke-width: 15; stroke-linecap: round; stroke-linejoin: round; stroke: rgb(238, 238, 238); fill: none;"></path><path d="M240,30 A-210,210 0 0,0 30,240 A210,210 0 0,0 240,450 A210,-210 0 0,0 450,240 A-210,-210 0 0,0 240,30 M240,300 L240,300 L240,300 M285,225 L285,225 L285,225 M195,225 L195,225 L195,225 " style="stroke-width: 40; stroke-linecap: round; stroke-linejoin: round; stroke: rgb(238, 238, 238); fill: none;"></path></svg>
